T: Marcha Processional Du Corpus De Pontevedra
M: 3/4
L: 1/8
K: Gmaj
Bc cB cd | B2BA Bc |A2AF Ae |dc BA G2 |
Bc cB cd | B2BA Bc | A2AG AB | G4 z2 :|
|: fg dB GB | fg dB GB | dc cA FA | ed dB GB |
fg dB GB | fg dB GB | dc cA FA | G4 z2 :|
